app/dist/common/images/proton-motor-power-systems-plc.svg

<svg height="18" viewBox="0 0 18 18" width="18" xmlns="http://www.w3.org/2000/svg"><path d="m0 0h18v18h-18z" fill="#f0f3fa"/><path d="m2 7v4h2v-1.43h2.73c.83 0 1.82-.36 1.82-1.23 0-.94-.99-1.34-1.82-1.34zm2 .86h1.89c.31 0 .56.19.56.43 0 .23-.25.42-.56.42h-1.89zm3.4 3.14v-1.31c.8-.14 1.4-.72 1.4-1.4 0-.56-.4-1.06-.98-1.29h1.72l2.19 1.72 2.2-1.72h2.07v4h-2v-2l-2.27 2-2.41-2v2z" fill="#184e8d"/></svg>

<!-- by TradingView --><svg width="18" height="18" viewBox="0 0 18 18" xmlns="http://www.w3.org/2000/svg"><path fill="#F0F3FA" d="M0 0h18v18H0z"/><path d="M2 7v4h2V9.57h2.73c.83 0 1.82-.36 1.82-1.23C8.55 7.4 7.56 7 6.73 7H2Zm2 .86h1.89c.31 0 .56.19.56.43 0 .23-.25.42-.56.42H4v-.85ZM7.4 11V9.69c.8-.14 1.4-.72 1.4-1.4 0-.56-.4-1.06-.98-1.29h1.72l2.19 1.72L13.93 7H16v4h-2V9l-2.27 2-2.41-2v2H7.4Z" fill="#184E8D"/></svg>
